icons/biochemistry_laboratory.svg

<svg width="48" height="48" viewBox="0 0 48 48" fill="none" xmlns="http://www.w3.org/2000/svg">
<path fill-rule="evenodd" clip-rule="evenodd" d="M14 22L14 25L10.509 30.9845C8.95351 33.6511 10.877 37 13.9642 37H21.0359C24.123 37 26.0465 33.6511 24.491 30.9845L21 25L21 22C21.5523 22 22 21.5523 22 21V17C22 16.4477 21.5523 16 21 16H14C13.4477 16 13 16.4477 13 17V21C13 21.5523 13.4477 22 14 22ZM22.7634 31.9923L19 25.5407V22H16V25.5407L12.2366 31.9923C11.4588 33.3256 12.4206 35 13.9642 35H21.0359C22.5794 35 23.5412 33.3256 22.7634 31.9923ZM15 18V20H20V18H15Z" fill="black"/>
<path fill-rule="evenodd" clip-rule="evenodd" d="M32 16.6785C34.2819 15.1583 36 13.6889 36 11H38C38 14.411 35.9226 16.3814 33.8124 17.8651C34.6433 18.4227 35.4688 19.0276 36.1504 19.7206C37.2219 20.81 38 22.1741 38 24C38 25.8259 37.2219 27.19 36.1504 28.2794C35.4688 28.9724 34.6433 29.5773 33.8124 30.1349C35.9226 31.6186 38 33.589 38 37H36C36 36.6466 35.9703 36.3142 35.9136 36H31C30.4477 36 30 35.5523 30 35C30 34.4477 30.4477 34 31 34H35.0649C34.343 32.981 33.257 32.159 32 31.3215C29.7181 32.8418 28 34.3111 28 37H26C26 33.589 28.0774 31.6186 30.1876 30.1349C29.3567 29.5773 28.5312 28.9724 27.8496 28.2794C26.7781 27.19 26 25.8259 26 24C26 22.1741 26.7781 20.81 27.8496 19.7206C28.5312 19.0276 29.3567 18.4227 30.1876 17.8651C28.0774 16.3814 26 14.411 26 11H28C28 11.3534 28.0297 11.6858 28.0864 12H33C33.5523 12 34 12.4477 34 13C34 13.5523 33.5523 14 33 14H28.9351C29.657 15.019 30.743 15.841 32 16.6785ZM32 19.0672C30.9957 19.7203 30.1035 20.318 29.3995 21H34.6005C33.8965 20.318 33.0043 19.7203 32 19.0672ZM28 24C28 23.6419 28.0439 23.3107 28.1277 23H35.8723C35.9561 23.3107 36 23.6419 36 24C36 24.3581 35.9561 24.6893 35.8723 25H28.1277C28.0439 24.6893 28 24.3581 28 24ZM29.3995 27C30.1035 27.682 30.9957 28.2797 32 28.9328C33.0043 28.2797 33.8965 27.682 34.6005 27H29.3995Z" fill="black"/>
<path fill-rule="evenodd" clip-rule="evenodd" d="M9 6C7.34315 6 6 7.34315 6 9V39C6 40.6569 7.34315 42 9 42H39C40.6569 42 42 40.6569 42 39V9C42 7.34315 40.6569 6 39 6H9ZM40 9C40 8.44771 39.5523 8 39 8H9C8.44771 8 8 8.44772 8 9V39C8 39.5523 8.44772 40 9 40H39C39.5523 40 40 39.5523 40 39V9Z" fill="black"/>
</svg>

<svg
  xmlns="http://www.w3.org/2000/svg"
  width="24"
  height="24"
  viewBox="0 0 24 24"
  fill="none"
  stroke="currentColor"
  stroke-width="2"
  stroke-linecap="round"
  stroke-linejoin="round"
>
  <path
    fill-rule="evenodd"
    d="M14 22v3l-3.491 5.985C8.954 33.65 10.877 37 13.964 37h7.072c3.087 0 5.01-3.349 3.455-6.015L21 25v-3a1 1 0 0 0 1-1v-4a1 1 0 0 0-1-1h-7a1 1 0 0 0-1 1v4a1 1 0 0 0 1 1m8.763 9.992L19 25.541V22h-3v3.54l-3.763 6.452C11.459 33.326 12.42 35 13.964 35h7.072c1.543 0 2.505-1.674 1.727-3.008M15 18v2h5v-2z"
    clip-rule="evenodd"
  />
  <path
    fill-rule="evenodd"
    d="M32 16.679c2.282-1.52 4-2.99 4-5.679h2c0 3.411-2.077 5.381-4.188 6.865.831.558 1.657 1.163 2.338 1.856C37.222 20.81 38 22.174 38 24s-.778 3.19-1.85 4.28c-.681.692-1.507 1.297-2.338 1.855C35.922 31.619 38 33.589 38 37h-2q-.001-.53-.086-1H31a1 1 0 1 1 0-2h4.065c-.722-1.019-1.808-1.841-3.065-2.678-2.282 1.52-4 2.99-4 5.678h-2c0-3.411 2.077-5.381 4.188-6.865-.831-.558-1.657-1.163-2.338-1.856C26.778 27.19 26 25.826 26 24s.778-3.19 1.85-4.28c.681-.692 1.507-1.297 2.338-1.855C28.078 16.381 26 14.411 26 11h2q.001.53.086 1H33a1 1 0 1 1 0 2h-4.065c.722 1.019 1.808 1.841 3.065 2.678m0 2.388c-1.004.653-1.896 1.251-2.6 1.933h5.2c-.703-.682-1.596-1.28-2.6-1.933M28 24q.001-.536.128-1h7.744q.127.464.128 1-.001.536-.128 1h-7.744A3.8 3.8 0 0 1 28 24m1.4 3c.704.682 1.596 1.28 2.6 1.933 1.004-.653 1.897-1.251 2.6-1.933z"
    clip-rule="evenodd"
  />
  <path
    fill-rule="evenodd"
    d="M9 6a3 3 0 0 0-3 3v30a3 3 0 0 0 3 3h30a3 3 0 0 0 3-3V9a3 3 0 0 0-3-3zm31 3a1 1 0 0 0-1-1H9a1 1 0 0 0-1 1v30a1 1 0 0 0 1 1h30a1 1 0 0 0 1-1z"
    clip-rule="evenodd"
  />
</svg>
